dist/assets/login-icon.svg

<svg width="16" height="18" viewBox="0 0 16 18" fill="none" xmlns="http://www.w3.org/2000/svg">
<path d="M14 9.7C14.3866 9.7 14.7 9.3866 14.7 9C14.7 8.6134 14.3866 8.3 14 8.3V9.7ZM6 8.3C5.6134 8.3 5.3 8.6134 5.3 9C5.3 9.3866 5.6134 9.7 6 9.7V8.3ZM14 8.3H6V9.7H14V8.3Z" fill="#00A5FF"/>
<path d="M8.49498 6.8283C8.76834 6.55493 8.76834 6.11171 8.49498 5.83835C8.22161 5.56498 7.77839 5.56498 7.50503 5.83835L8.49498 6.8283ZM5.33333 8.99999L4.83836 8.50501C4.56499 8.77838 4.56499 9.2216 4.83836 9.49496L5.33333 8.99999ZM7.50503 12.1616C7.77839 12.435 8.22161 12.435 8.49497 12.1616C8.76834 11.8883 8.76834 11.445 8.49497 11.1717L7.50503 12.1616ZM7.50503 5.83835L4.83836 8.50501L5.82831 9.49496L8.49498 6.8283L7.50503 5.83835ZM4.83836 9.49496L7.50503 12.1616L8.49497 11.1717L5.82831 8.50501L4.83836 9.49496Z" fill="#00A5FF"/>
<path d="M11.3 3.66666C11.3 4.05326 11.6134 4.36666 12 4.36666C12.3866 4.36666 12.7 4.05326 12.7 3.66666H11.3ZM12 1.66666H12.7C12.7 1.28006 12.3866 0.966657 12 0.966657V1.66666ZM2.66669 1.66666V0.966657C2.28009 0.966657 1.96669 1.28006 1.96669 1.66666L2.66669 1.66666ZM2.66669 16.3333H1.96669C1.96669 16.7199 2.28009 17.0333 2.66669 17.0333V16.3333ZM12 16.3333V17.0333C12.3866 17.0333 12.7 16.7199 12.7 16.3333H12ZM12.7 14.3333C12.7 13.9467 12.3866 13.6333 12 13.6333C11.6134 13.6333 11.3 13.9467 11.3 14.3333H12.7ZM12.7 3.66666V1.66666H11.3V3.66666H12.7ZM12 0.966657H2.66669V2.36666H12V0.966657ZM1.96669 1.66666V16.3333H3.36669V1.66666H1.96669ZM2.66669 17.0333H12V15.6333H2.66669V17.0333ZM12.7 16.3333V14.3333H11.3V16.3333H12.7Z" fill="#00A5FF"/>
</svg>

<svg xmlns="http://www.w3.org/2000/svg" width="16" height="18" fill="#00a5ff"><path d="M14 9.7a.7.7 0 0 0 0-1.4v1.4zM6 8.3a.7.7 0 0 0 0 1.4V8.3zm8 0H6v1.4h8V8.3z"/><path d="M8.495 6.828a.7.7 0 1 0-.99-.99l1 1zM5.333 9l-.495-.495a.7.7 0 0 0 0 .99L5.333 9zm2.172 3.162a.7.7 0 0 0 .99-.99l-1 1zm0-6.323L4.838 8.505l1 1 2.667-2.667-1-1zM4.838 9.495l2.667 2.667 1-1-2.667-2.667-1 1zM11.3 3.667a.7.7 0 0 0 1.4 0h-1.4zm.7-2h.7a.7.7 0 0 0-.7-.7v.7zm-9.333 0v-.7a.7.7 0 0 0-.7.7h.7zm0 14.667h-.7a.7.7 0 0 0 .7.7v-.7zm9.333 0v.7a.7.7 0 0 0 .7-.7H12zm.7-2a.7.7 0 0 0-1.4 0h1.4zm0-10.667v-2h-1.4v2h1.4zm-.7-2.7H2.667v1.4H12v-1.4zm-10.033.7v14.667h1.4V1.667h-1.4zm.7 15.367H12v-1.4H2.667v1.4zm10.033-.7v-2h-1.4v2h1.4z"/></svg>
